!!!COM: Music21
!!!OTL: A Laranxeira
!!!OMV: pezas_mazurcas_a-laranxeira_a-laranxeira-partitura.musicxml
**kern
*I"Bagpipes
*I'Bag
*clefG^2
*k[]
*M3/4
=1
!LO:TX:a:t=Moderato
*MM112
!LO:TX:a:t=[quarter]=112
4.r
8ee
8ggL
8cccJ
=||
4.bb
8dd
8cccL
8bbJ
=
12aaL
12bb
12aaJ
8ffL
8ddJ
8ffL
8bbJ
=
4.aa
8ccc
8bbL
8aaJ
=
12ggL
12aa
12ggJ
8eeL
8ccJ
8eeL
8ggJ
=
8cccL
8bbJ
8aaL
8ggJ
8ffL
8eeJ
=
12ggL
12aa
12ggJ
8ffL
8ddJ
8eeL
8ffJ
!!linebreak:original
=
8bbL
8aaJ
8ggL
8ffJ
8eeL
8ddJ
=
12aaL
12bb
12aaJ
8ggL
8eeJ
8ggL
8cccJ
=||
4.bb
8dd
8cccL
8bbJ
=
12aaL
12bb
12aaJ
8ffL
8ddJ
8ffL
8bbJ
=
4.aa
8ccc
8bbL
8aaJ
=
12ggL
12aa
12ggJ
8eeL
8ccJ
8eeL
8ggJ
=
8cccL
8bbJ
8aaL
8ggJ
8ffL
8eeJ
!!linebreak:original
=
12ggL
12aa
12ggJ
8ffL
8ddJ
8eeL
8ffJ
!!linebreak:original
=
8bbL
8aaJ
8ggL
8ffJ
8eeL
8ddJ
=
4cc
8ccL
8aaJ
8ggL
8ffJ
=||
8ggL
8eeJ
8ccL
8eeJ
8ggL
8eeJ
=
8ffL
8ddJ
8bL
8ggJ
8ffL
8eeJ
=
8ffL
8ddJ
8bL
8ddJ
8aaL
8ffJ
=
8ggL
8eeJ
8ccL
8aaJ
8ggL
8ffJ
!!linebreak:original
=
8ggL
8eeJ
8ccL
8eeJ
8ggL
8eeJ
=
8ffL
8ddJ
8bL
8ggJ
8ffL
8eeJ
=
8ffL
8ddJ
8bL
8ffJ
8eeL
8ddJ
=
4cc
8ccL
8aaJ
8ggL
8ffJ
=||
8ggL
8eeJ
8ccL
8eeJ
8ggL
8eeJ
=
8ffL
8ddJ
8bL
8ggJ
8ffL
8eeJ
=
8ffL
8ddJ
8bL
8ddJ
8aaL
8ffJ
!!linebreak:original
=
8ggL
8eeJ
8ccL
8aaJ
8ggL
8ffJ
!!linebreak:original
=
8ggL
8eeJ
8ccL
8eeJ
8ggL
8eeJ
=
8ffL
8ddJ
8bL
8ggJ
8ffL
8eeJ
=
8ffL
8ddJ
8bL
8ffJ
8eeL
8ddJ
=
4cc
8ccL
8ggJ
8cccL
8aaJ
=||
[2bb
8bbL]
8ggJ
=
[2aa
8aaL]
8ffJ
=
2.gg
=
4ee
8eeL
8ggJ
8bbL
8ggJ
!!linebreak:original
=
[2aa
8aaL]
8ffJ
=
8ddL
8eeJ
8ffL
8ggJ
8aaL
8cccJ
=
[2bb
8bbL]
8ggJ
=
4ee
8eeL
8ggJ
8cccL
8aaJ
=
[2bb
8bbL]
8ggJ
=
[2aa
8aaL]
8ffJ
=
[2ccc
8cccL]
8ggJ
=
4ee
8eeL
8ggJ
8bbL
8ggJ
=
[2aa
8aaL]
8ffJ
=
8ddL
8eeJ
8ffL
8aaJ
8ggL
8ffJ
!!linebreak:original
=
8eeL
8ggJ
8bbL
8ggJ
8aaL
8ffJ
=
4ee
8eeL
8ggJ
8cccL
8aaJ
=||
[2bb
8bbL]
8ggJ
=
[2aa
8aaL]
8ffJ
=
2.gg
=
4ee
8eeL
8ggJ
8bbL
8ggJ
!!linebreak:original
=
[2aa
8aaL]
8ffJ
=
8ddL
8eeJ
8ffL
8ggJ
8aaL
8cccJ
=
[2bb
8bbL]
8ggJ
=
4ee
8eeL
8ggJ
8cccL
8aaJ
=
[2bb
8bbL]
8ggJ
=
[2aa
8aaL]
8ffJ
=
[2ccc
8cccL]
8ggJ
=
4ee
8eeL
8ggJ
8bbL
8ggJ
=
[2aa
8aaL]
8ffJ
=
8ddL
8eeJ
8ffL
8aaJ
8ggL
8ffJ
!!linebreak:original
=
8eeL
8ggJ
8bbL
8ggJ
8aaL
8ffJ
=
4ee
2ee
=||
*k[b-e-a-]
*E-:
4gg
8ggL
8ffJ
8aa-L
8ggJ
=
4ff
8ffL
8ee-J
4dd
=
4aa-
8aa-L
8ggJ
8bb-L
8aa-J
=
4gg
8ggL
8ffJ
4ee-
=
4gg
8ggL
8ffJ
8aa-L
8ggJ
=
4ff
8ffL
8ee-J
4dd
!!linebreak:original
=
8ggL
8aa-J
8ggL
8ffJ
8ee-L
8ddJ
=
4ee-
4cc
4cc
=||
4gg
8ggL
8ffJ
8aa-L
8ggJ
=
4ff
8ffL
8ee-J
4dd
=
4aa-
8aa-L
8ggJ
8bb-L
8aa-J
=
4gg
8ggL
8ffJ
4ee-
=
4gg
8ggL
8ffJ
8aa-L
8ggJ
=
4ff
8ffL
8ee-J
4dd
!!pagebreak:original
=
8ggL
8aa-J
8ggL
8ffJ
8ee-L
8ddJ
=
*k[]
*C:
4cc
8ccL
8eeJ
8ggL
8cccJ
=||
8ccL
8ggJ
8ccc
4.r
==
*-
